assets/img/braze_icons/subscript.svg

<svg fill="none" height="24" viewBox="0 0 24 24" width="24" xmlns="http://www.w3.org/2000/svg"><g fill="#801ed7"><path d="m2.29289 4.29289c.39053-.39052 1.02369-.39052 1.41422 0l4.29289 4.2929 4.2929-4.2929c.3905-.39052 1.0237-.39052 1.4142 0 .3905.39053.3905 1.02369 0 1.41422l-4.29289 4.29289 4.29289 4.2929c.3905.3905.3905 1.0237 0 1.4142s-1.0237.3905-1.4142 0l-4.2929-4.2929-4.29289 4.2929c-.39053.3905-1.02369.3905-1.41422 0-.39052-.3905-.39052-1.0237 0-1.4142l4.2929-4.2929-4.2929-4.29289c-.39052-.39053-.39052-1.02369 0-1.41422z"/><path d="m19.4536 11.0395c-.703-.118-1.4252.009-2.0457.3598l-.004.0023c-.6242.3567-1.1046.9241-1.3461 1.6032-.185.5204.0868 1.0922.6072 1.2773.5204.185 1.0922-.0869 1.2772-.6073.0783-.2201.2372-.4122.452-.5356.221-.1244.478-.1693.7282-.1273.2488.0418.4759.1671.6439.3551.1513.1781.2337.4046.2337.6328 0 .2478-.1162.49-.4793.7822-.3827.3079-.8928.5518-1.4473.8134-.5806.2739-1.1638.6228-1.5606 1.2364-.3952.6112-.5128 1.3388-.5128 2.168 0 .5523.4477 1 1 1h4c.5523 0 1-.4477 1-1 0-.5522-.4477-1-1-1h-2.8533c.0152-.0318.0306-.0588.0455-.0819.0882-.1364.2551-.2875.7344-.5136l.0562-.0265c.503-.237 1.2112-.5706 1.7916-1.0376.6218-.5003 1.2256-1.2581 1.2256-2.3404 0-.7097-.2561-1.4012-.7222-1.9425l-.0082-.0094c-.4719-.5343-1.113-.8903-1.816-1.0084z"/></g></svg>

<svg width="24" height="24" viewBox="0 0 24 24" fill="none" xmlns="http://www.w3.org/2000/svg">
<path d="M2.29289 4.29289C2.68342 3.90237 3.31658 3.90237 3.70711 4.29289L8 8.58579L12.2929 4.29289C12.6834 3.90237 13.3166 3.90237 13.7071 4.29289C14.0976 4.68342 14.0976 5.31658 13.7071 5.70711L9.41421 10L13.7071 14.2929C14.0976 14.6834 14.0976 15.3166 13.7071 15.7071C13.3166 16.0976 12.6834 16.0976 12.2929 15.7071L8 11.4142L3.70711 15.7071C3.31658 16.0976 2.68342 16.0976 2.29289 15.7071C1.90237 15.3166 1.90237 14.6834 2.29289 14.2929L6.58579 10L2.29289 5.70711C1.90237 5.31658 1.90237 4.68342 2.29289 4.29289Z" fill="#801ED7"/>
<path d="M19.4536 11.0395C18.7506 10.9215 18.0284 11.0485 17.4079 11.3993L17.4039 11.4016C16.7797 11.7583 16.2993 12.3257 16.0578 13.0048C15.8728 13.5252 16.1446 14.097 16.665 14.2821C17.1854 14.4671 17.7572 14.1952 17.9422 13.6748C18.0205 13.4547 18.1794 13.2626 18.3942 13.1392C18.6152 13.0148 18.8722 12.9699 19.1224 13.0119C19.3712 13.0537 19.5983 13.179 19.7663 13.367C19.9176 13.5451 20 13.7716 20 13.9998C20 14.2476 19.8838 14.4898 19.5207 14.782C19.138 15.0899 18.6279 15.3338 18.0734 15.5954C17.4928 15.8693 16.9096 16.2182 16.5128 16.8318C16.1176 17.443 16 18.1706 16 18.9998C16 19.5521 16.4477 19.9998 17 19.9998H21C21.5523 19.9998 22 19.5521 22 18.9998C22 18.4476 21.5523 17.9998 21 17.9998H18.1467C18.1619 17.968 18.1773 17.941 18.1922 17.9179C18.2804 17.7815 18.4473 17.6304 18.9266 17.4043L18.9828 17.3778C19.4858 17.1408 20.194 16.8072 20.7744 16.3402C21.3962 15.8399 22 15.0821 22 13.9998C22 13.2901 21.7439 12.5986 21.2778 12.0573L21.2696 12.0479C20.7977 11.5136 20.1566 11.1576 19.4536 11.0395Z" fill="#801ED7"/>
</svg>
